X: 0
T: Shining O'er Bethlehem
Z: Old English
Z: Copyright © 2004 by Douglas D. Anderson
Z: Released To The Public Domain
L: 1/4
M: 4/4
Q: 1/4=115
V: P1 name="Staff"
%%MIDI program 1 19
K: F
[V: P1]  c2 c c | A3/ B/ c A | d c B A | G3 A | B3/ c/ (d/e/) f | F3/ G/ (A/B/) c | B A (G/F/) G | F4 | c3/ c/ d f | f e f2 | A3/ G/ (F/G/) A | G F G2 | A3/ G/ (F/G/) A | B3/ A/ (G/A/) B | c3/ B/ (A/B/) c | d3/ c/ B A | (G F G/F/) G | F4|]
w: Shin- ing o'er Beth- le hem, to faith- ful Watch- ers given, The Star a- bove_ the mid- day light_ il- lumed the vault_ of Heaven. East- ern Sag- es, each a King, Mys- tic sym-_ bols of- fer ing Re- gal gold,_ and priest- ly frank-_ in cense, and death-_ ly myrrh, their pre- cious tri-___ bute bring.

